assets/misc-grey/MiscGrey68.svg

<svg xmlns="http://www.w3.org/2000/svg" viewBox="0 0 40 40"><path fill-rule="evenodd" d="M19.89 17.555c-1.82-.153-4-.763-4.04-2.809-.02-.845.4-1.46.76-1.828.77-.787 2-1.238 3.37-1.238 2.58 0 3.75 1.44 3.75 2.778 0 .829.67 1.5 1.5 1.5s1.5-.671 1.5-1.5c0-2.525-1.8-5.076-5.24-5.655V7.439a1.5 1.5 0 10-3 0V8.81c-1.58.271-3 .968-4.02 2.009-1.08 1.101-1.65 2.518-1.62 3.991.07 3.24 2.61 5.384 6.84 5.738 2.81.143 4.71 1.561 4.62 3.449-.08 1.736-1.86 2.997-4.22 2.997-2.3 0-4.61-1.003-4.61-3.244 0-.829-.67-1.5-1.5-1.5s-1.5.671-1.5 1.5c0 3.222 2.4 5.592 6.01 6.128v1.645c0 .829.67 1.5 1.5 1.5s1.5-.671 1.5-1.5v-1.635c3.31-.502 5.67-2.765 5.81-5.751.15-3.075-2.37-6.325-7.41-6.582zm-.21 18.572c-9.07 0-16.45-7.378-16.45-16.448 0-9.071 7.38-16.45 16.45-16.45s16.45 7.379 16.45 16.45c0 9.07-7.38 16.448-16.45 16.448zm0-35.898C8.95.229.23 8.955.23 19.679c0 10.724 8.72 19.448 19.45 19.448 10.72 0 19.45-8.724 19.45-19.448S30.4.229 19.68.229z" clip-rule="evenodd"/></svg>

<svg width="40" height="40" viewBox="0 0 40 40" fill="none" xmlns="http://www.w3.org/2000/svg">
<path fill-rule="evenodd" clip-rule="evenodd" d="M19.89 17.555C18.07 17.402 15.89 16.792 15.85 14.746C15.83 13.901 16.25 13.286 16.61 12.918C17.38 12.131 18.61 11.68 19.98 11.68C22.56 11.68 23.73 13.12 23.73 14.458C23.73 15.287 24.4 15.958 25.23 15.958C26.06 15.958 26.73 15.287 26.73 14.458C26.73 11.933 24.93 9.382 21.49 8.803V7.439C21.49 6.611 20.82 5.939 19.99 5.939C19.16 5.939 18.49 6.611 18.49 7.439V8.81C16.91 9.081 15.49 9.778 14.47 10.819C13.39 11.92 12.82 13.337 12.85 14.81C12.92 18.05 15.46 20.194 19.69 20.548C22.5 20.691 24.4 22.109 24.31 23.997C24.23 25.733 22.45 26.994 20.09 26.994C17.79 26.994 15.48 25.991 15.48 23.75C15.48 22.921 14.81 22.25 13.98 22.25C13.15 22.25 12.48 22.921 12.48 23.75C12.48 26.972 14.88 29.342 18.49 29.878V31.523C18.49 32.352 19.16 33.023 19.99 33.023C20.82 33.023 21.49 32.352 21.49 31.523V29.888C24.8 29.386 27.16 27.123 27.3 24.137C27.45 21.062 24.93 17.812 19.89 17.555ZM19.68 36.127C10.61 36.127 3.22998 28.749 3.22998 19.679C3.22998 10.608 10.61 3.229 19.68 3.229C28.75 3.229 36.13 10.608 36.13 19.679C36.13 28.749 28.75 36.127 19.68 36.127ZM19.68 0.229004C8.94998 0.229004 0.22998 8.955 0.22998 19.679C0.22998 30.403 8.94998 39.127 19.68 39.127C30.4 39.127 39.13 30.403 39.13 19.679C39.13 8.955 30.4 0.229004 19.68 0.229004Z" fill="#1A1919"/>
</svg>
